images/services/3.svg

<svg width="38" height="38" viewBox="0 0 38 38" fill="none" xmlns="http://www.w3.org/2000/svg">
<path d="M11.875 4.74717C11.875 4.41942 11.609 4.15342 11.2813 4.15342H8.3125V7.0438L3.08572 3.55967L8.3125 0.0755463V2.96592H11.2813C12.2633 2.96592 13.0625 3.76511 13.0625 4.74717V6.52842H11.875V4.74717ZM7.125 2.2938L5.22678 3.55967L7.125 4.82555V2.2938Z" fill="#535353"/>
<path d="M13.0625 7.71595H11.875V8.90345H13.0625V7.71595Z" fill="#535353"/>
<path d="M2.12384 21.3722C2.84763 21.3722 3.49422 20.9399 3.78337 20.2417C4.06541 19.5678 3.91519 18.8006 3.40159 18.287L2.31919 17.2046L6.51937 13.0045L7.60178 14.0869C7.80484 14.2905 8.04888 14.4342 8.31191 14.5185V10.6847C8.31191 10.3569 8.04591 10.0909 7.71816 10.0909H5.93691V12.9813L0.710716 9.49717L5.9375 6.01305V8.90342H7.71875C8.70081 8.90342 9.5 9.70261 9.5 10.6847V14.4847C9.52909 14.474 9.55878 14.4675 9.58728 14.455C10.2552 14.1789 10.6875 13.5323 10.6875 12.8085V11.2784H11.875V10.0909H13.0625V11.2784H14.25V10.0909H15.4375V11.2784H16.625V12.8085C16.625 13.5323 17.0572 14.1789 17.7555 14.468C17.7739 14.4758 17.7935 14.4799 17.8125 14.487V8.30967C17.8125 7.53661 18.3107 6.88348 19 6.63767V4.15342H16.0312C15.7035 4.15342 15.4375 4.41942 15.4375 4.74717V6.52842H14.25V4.74717C14.25 3.76511 15.0492 2.96592 16.0312 2.96592H19V0.0755463L24.2268 3.55967L19.7737 6.52842H29.6875V3.63805L34.9143 7.12217L32.2323 8.90995C32.2092 8.90936 32.1878 8.90342 32.1646 8.90342H29.6875V7.71592H19.5938C19.266 7.71592 19 7.98192 19 8.30967V14.5191C19.225 14.4461 19.4317 14.3202 19.6163 14.1599C19.605 14.3077 19.5938 14.455 19.5938 14.6058C19.5938 14.9151 19.6193 15.2227 19.6686 15.5267C18.9299 15.8592 18.0708 15.8877 17.2698 15.5528C16.1571 15.0915 15.4375 14.0138 15.4375 12.8085V12.4659H11.875V12.8085C11.875 14.0138 11.1554 15.0915 10.0148 15.5641C8.89319 16.032 7.61722 15.7826 6.76222 14.9264L6.51937 14.6836L3.99831 17.2046L4.24116 17.4475C5.09616 18.3025 5.34672 19.5796 4.86757 20.7268C4.40681 21.84 3.32915 22.5597 2.12384 22.5597H1.78125V26.1222H2.12384C3.32915 26.1222 4.40681 26.8418 4.87944 27.9824C5.34731 29.1028 5.09675 30.3794 4.24175 31.235L3.99891 31.4778L6.51997 33.9989L6.76281 33.756C7.61722 32.9016 8.89259 32.6505 10.0421 33.1296C11.1554 33.5904 11.875 34.668 11.875 35.8733V36.2159H16.0312V32.3067C15.2641 32.5353 14.4691 32.6534 13.6562 32.6534C9.0725 32.6534 5.34375 28.9247 5.34375 24.3409C5.34375 19.7572 9.0725 16.0284 13.6562 16.0284C15.9891 16.0284 18.0975 16.998 19.6086 18.5507C19.6056 18.5014 19.5938 18.4539 19.5938 18.4034C19.5938 17.0936 20.6589 16.0284 21.9688 16.0284H22.5625H23.3908C24.5326 16.0284 25.5918 15.4614 26.2247 14.5114L26.7188 13.7704L27.2128 14.5114C27.8457 15.4614 28.9055 16.0284 30.0467 16.0284H30.875H31.4688C32.7786 16.0284 33.8438 17.0936 33.8438 18.4034C33.8438 19.7132 32.7786 20.7784 31.4688 20.7784H31.3126C31.0044 21.9701 30.2462 22.98 29.2279 23.6165L29.5735 24.997L32.0726 25.3539C32.9852 25.4851 33.8728 25.8235 34.64 26.3347C36.3719 27.4896 37.4062 29.4222 37.4062 31.5039V37.4034H10.6875V35.8733C10.6875 35.1496 10.2553 34.503 9.557 34.2138C8.88309 33.9318 8.11597 34.0814 7.60238 34.5956L6.51997 35.678L2.31978 31.4778L3.40219 30.3954C3.91519 29.8818 4.06541 29.1147 3.77091 28.4099C3.49422 27.7419 2.84763 27.3097 2.12384 27.3097H0.59375V21.3722H2.12384ZM4.75 8.2313L2.85178 9.49717L4.75 10.763V8.2313ZM20.1875 4.82555L22.0857 3.55967L20.1875 2.2938V4.82555ZM30.875 8.38805L32.7732 7.12217L30.875 5.8563V8.38805ZM24.1846 26.1507L23.4519 26.2552L24.1543 28.1558L25.6565 27.2545L24.1846 26.1507ZM21.5335 26.5301C21.4801 26.5378 21.4284 26.5526 21.375 26.5621V29.7755L23.6241 30.1508L22.2484 26.428L21.5335 26.5301ZM26.7188 28.002L24.5729 29.2898L26.7188 35.0961L28.8646 29.2898L26.7188 28.002ZM27.5714 36.2159H28.7494L30.6933 32.8143L29.2339 31.7195L27.5714 36.2159ZM24.2042 31.7189L22.7448 32.8137L24.6881 36.2159H25.8661L24.2042 31.7189ZM21.1927 32.4925L22.8772 31.2296L20.1875 30.7819V26.9285C19.934 27.0419 19.687 27.1695 19.4566 27.3227C18.0553 28.2573 17.2188 29.82 17.2188 31.5039V36.2159H23.3207L21.1927 32.4925ZM18.3653 24.9347H14.25V29.05C16.3946 28.7804 18.0957 27.0793 18.3653 24.9347ZM13.0625 24.9347H8.94722C9.21619 27.0793 10.9179 28.7804 13.0625 29.05V24.9347ZM13.0625 23.7472V19.6319C10.9179 19.9009 9.21678 21.6025 8.94722 23.7472H13.0625ZM14.25 23.7472H18.3653C18.0963 21.6025 16.3946 19.9015 14.25 19.6319V23.7472ZM13.6562 17.2159C9.72741 17.2159 6.53125 20.4121 6.53125 24.3409C6.53125 28.2698 9.72741 31.4659 13.6562 31.4659C14.4851 31.4659 15.2903 31.3175 16.0597 31.0414C16.096 30.5587 16.1868 30.0884 16.3299 29.6348C15.5254 30.0433 14.6187 30.2784 13.6562 30.2784C10.3823 30.2784 7.71875 27.6149 7.71875 24.3409C7.71875 21.067 10.3823 18.4034 13.6562 18.4034C16.9302 18.4034 19.5938 21.067 19.5938 24.3409C19.5938 24.9204 19.5065 25.4797 19.3509 26.01C19.7719 25.7891 20.2178 25.6139 20.6785 25.4934C20.7397 25.1134 20.7812 24.7292 20.7812 24.3409C20.7812 20.4121 17.5851 17.2159 13.6562 17.2159ZM21.9688 24.3409C21.9688 24.6538 21.9492 24.9661 21.9147 25.2755L23.8646 24.997L24.2102 23.6165C23.1919 22.9795 22.4342 21.9701 22.1255 20.7784H21.9688C21.6499 20.7784 21.3465 20.7131 21.0686 20.5991C21.6398 21.7255 21.9688 22.9943 21.9688 24.3409ZM20.7812 18.4034C20.7812 19.0583 21.3138 19.5909 21.9688 19.5909V17.2159C21.3138 17.2159 20.7812 17.7485 20.7812 18.4034ZM32.6562 18.4034C32.6562 17.7485 32.1237 17.2159 31.4688 17.2159V19.5909C32.1237 19.5909 32.6562 19.0583 32.6562 18.4034ZM30.2812 19.5909V17.2159H30.0467C28.7743 17.2159 27.5773 16.6934 26.7188 15.7891C25.8602 16.6934 24.6626 17.2159 23.3908 17.2159H23.1562V19.5909C23.1562 21.5556 24.754 23.1534 26.7188 23.1534C28.6835 23.1534 30.2812 21.5556 30.2812 19.5909ZM26.7188 24.3409C26.2271 24.3409 25.7521 24.2655 25.3062 24.1266L25.0159 25.2903L26.7188 26.5675L28.4222 25.2897L28.1319 24.126C27.6854 24.2655 27.2104 24.3409 26.7188 24.3409ZM29.2529 26.1507L27.781 27.2545L29.2832 28.1558L29.9856 26.2552L29.2529 26.1507ZM31.1891 26.4274L29.8134 30.1502L32.0625 29.7749V26.5616C32.0097 26.552 31.9574 26.5372 31.904 26.5295L31.1891 26.4274ZM36.2188 31.5039C36.2188 29.8195 35.3822 28.2567 33.9809 27.3227C33.7505 27.1695 33.5035 27.0419 33.25 26.9285V30.7819L30.5597 31.2296L32.2442 32.4925L30.1168 36.2159H36.2188V31.5039Z" fill="#535353"/>
<path d="M15.4375 7.71595H14.25V8.90345H15.4375V7.71595Z" fill="#535353"/>
</svg>

<svg width="38" height="38" fill="none" xmlns="http://www.w3.org/2000/svg"><path d="M11.875 4.7472a.594.594 0 0 0-.5937-.5938H8.3125v2.8904L3.0857 3.5597 8.3125.0755V2.966h2.9688c.982 0 1.7812.7992 1.7812 1.7813v1.7812H11.875V4.7472Zm-4.75-2.4534L5.2268 3.5597 7.125 4.8255V2.2938ZM13.0625 7.716H11.875v1.1874h1.1875V7.716Z" fill="#535353"/><path d="M2.1238 21.3722c.7238 0 1.3704-.4323 1.6596-1.1305.282-.6739.1318-1.4411-.3818-1.9547l-1.0824-1.0824 4.2002-4.2001 1.0824 1.0824c.203.2036.447.3473.7101.4316v-3.8338a.594.594 0 0 0-.5937-.5938H5.9369v2.8904L.7107 9.4972 5.9375 6.013v2.8903h1.7813c.982 0 1.7812.7992 1.7812 1.7813v3.8c.029-.0107.0588-.0172.0873-.0297a1.7764 1.7764 0 0 0 1.1002-1.6465v-1.5301h1.1875v-1.1875h1.1875v1.1875H14.25v-1.1875h1.1875v1.1875h1.1875v1.5301c0 .7238.4322 1.3704 1.1305 1.6595.0184.0078.038.0119.057.019V8.3097c0-.773.4982-1.4262 1.1875-1.672V4.1534h-2.9688a.594.594 0 0 0-.5937.5938v1.7812H14.25V4.7472c0-.982.7992-1.7813 1.7812-1.7813H19V.0755l5.2268 3.4842-4.4531 2.9687h9.9138V3.638l5.2268 3.4842-2.682 1.7877c-.0231-.0005-.0445-.0065-.0677-.0065h-2.4771V7.716H19.5938A.594.594 0 0 0 19 8.3097v6.2094c.225-.073.4317-.1989.6163-.3592-.0113.1478-.0225.2951-.0225.4459a5.75 5.75 0 0 0 .0748.9209c-.7387.3325-1.5978.361-2.3988.0261a2.9626 2.9626 0 0 1-1.8323-2.7443v-.3426H11.875v.3426c0 1.2053-.7196 2.283-1.8602 2.7556-1.1216.4679-2.3976.2185-3.2526-.6377l-.2428-.2428-2.521 2.521.2428.2429c.855.855 1.1055 2.1321.6264 3.2793-.4608 1.1132-1.5385 1.8329-2.7438 1.8329h-.3426v3.5625h.3426c1.2053 0 2.283.7196 2.7556 1.8602.468 1.1204.2173 2.397-.6377 3.2526l-.2428.2428 2.521 2.5211.243-.2429c.8543-.8544 2.1297-1.1055 3.2792-.6264 1.1133.4608 1.8329 1.5384 1.8329 2.7437v.3426h4.1562v-3.9092a8.2915 8.2915 0 0 1-2.375.3467c-4.5837 0-8.3125-3.7287-8.3125-8.3125 0-4.5837 3.7288-8.3125 8.3125-8.3125 2.3329 0 4.4413.9696 5.9524 2.5223-.003-.0493-.0148-.0968-.0148-.1473 0-1.3098 1.0651-2.375 2.375-2.375H23.3908c1.1418 0 2.201-.567 2.8339-1.517l.4941-.741.494.741a3.3986 3.3986 0 0 0 2.8339 1.517h1.4221c1.3098 0 2.375 1.0652 2.375 2.375s-1.0652 2.375-2.375 2.375h-.1562c-.3082 1.1917-1.0664 2.2016-2.0847 2.8381l.3456 1.3805 2.4991.3569c.9126.1312 1.8002.4696 2.5674.9808a6.2012 6.2012 0 0 1 2.7662 5.1692v5.8995H10.6875v-1.5301c0-.7237-.4322-1.3703-1.1305-1.6595-.674-.282-1.441-.1324-1.9546.3818L6.52 35.678l-4.2002-4.2002 1.0824-1.0824c.513-.5136.6632-1.2807.3687-1.9855a1.7777 1.7777 0 0 0-1.647-1.1002H.5937v-5.9375h1.53ZM4.75 8.2313 2.8518 9.4972 4.75 10.763V8.2313Zm15.4375-3.4057 1.8982-1.266-1.8982-1.2658v2.5317ZM30.875 8.388l1.8982-1.266-1.8982-1.2658V8.388Zm-6.6904 17.7626-.7327.1045.7024 1.9006 1.5022-.9013-1.4719-1.1038Zm-2.6511.3794c-.0534.0077-.1051.0225-.1585.032v3.2134l2.2491.3753-1.3757-3.7228-.7149.1021Zm5.1853 1.4719-2.1459 1.2878 2.1459 5.8063 2.1458-5.8063-2.1458-1.2878Zm.8526 8.2139h1.178l1.9439-3.4016-1.4594-1.0948-1.6625 4.4964Zm-3.3672-4.497-1.4594 1.0948 1.9433 3.4022h1.178l-1.6619-4.497Zm-3.0115.7736 1.6845-1.2629-2.6897-.4477v-3.8534c-.2535.1134-.5005.241-.7309.3942a5.0157 5.0157 0 0 0-2.2378 4.1812v4.712h6.1019l-2.128-3.7234Zm-2.8274-7.5578H14.25V29.05c2.1446-.2696 3.8457-1.9707 4.1153-4.1153Zm-5.3028 0H8.9472c.269 2.1446 1.9707 3.8457 4.1153 4.1153v-4.1153Zm0-1.1875v-4.1153c-2.1446.269-3.8457 1.9706-4.1153 4.1153h4.1153Zm1.1875 0h4.1153c-.269-2.1447-1.9707-3.8457-4.1153-4.1153v4.1153Zm-.5938-6.5313c-3.9288 0-7.125 3.1962-7.125 7.125 0 3.9289 3.1962 7.125 7.125 7.125.8289 0 1.6341-.1484 2.4035-.4245a6.2164 6.2164 0 0 1 .2702-1.4066c-.8045.4085-1.7112.6436-2.6737.6436-3.2739 0-5.9375-2.6635-5.9375-5.9375 0-3.2739 2.6636-5.9375 5.9375-5.9375 3.274 0 5.9376 2.6636 5.9376 5.9375 0 .5795-.0873 1.1388-.2429 1.6691a6.286 6.286 0 0 1 1.3276-.5166c.0612-.38.1027-.7642.1027-1.1525 0-3.9288-3.1961-7.125-7.125-7.125Zm8.3126 7.125c0 .3129-.0196.6252-.0541.9346l1.9499-.2785.3456-1.3805c-1.0183-.637-1.776-1.6464-2.0847-2.8381h-.1567a2.366 2.366 0 0 1-.9002-.1793c.5712 1.1264.9002 2.3952.9002 3.7418Zm-1.1876-5.9375c0 .6549.5326 1.1875 1.1876 1.1875v-2.375c-.655 0-1.1876.5326-1.1876 1.1875Zm11.875 0c0-.6549-.5325-1.1875-1.1874-1.1875v2.375c.6549 0 1.1874-.5326 1.1874-1.1875Zm-2.375 1.1875v-2.375h-.2345c-1.2724 0-2.4694-.5225-3.3279-1.4268a4.5833 4.5833 0 0 1-3.328 1.4268h-.2346v2.375c0 1.9647 1.5978 3.5625 3.5626 3.5625 1.9647 0 3.5624-1.5978 3.5624-3.5625Zm-3.5624 4.75a4.7452 4.7452 0 0 1-1.4126-.2143l-.2903 1.1637 1.7029 1.2772 1.7034-1.2778-.2903-1.1637a4.733 4.733 0 0 1-1.4131.2149Zm2.5341 1.8098-1.4719 1.1038 1.5022.9013.7024-1.9006-.7327-.1045Zm1.9362.2767-1.3757 3.7228 2.2491-.3753v-3.2133c-.0528-.0096-.1051-.0244-.1585-.0321l-.7149-.1021Zm5.0297 5.0765a5.0143 5.0143 0 0 0-2.2379-4.1812c-.2304-.1532-.4774-.2808-.7309-.3942v3.8534l-2.6903.4477 1.6845 1.2629-2.1274 3.7234h6.102v-4.712Z" fill="#535353"/><path d="M15.4375 7.716H14.25v1.1874h1.1875V7.716Z" fill="#535353"/></svg>
